X:1
T: Emslie's Fiddle
C:
R:Strathspey
Q: 128
K:A
M:4/4
L:1/16
|:G2|A4 E3C A,3C E3C|D4 B3A GB3 Ee3|A4 E3C A,B,CD E3C|D3F B,3G A6 G2|
A4 E3C A,3C E3C|D4 B3A GB3 Ee3|A4 E3C A,B,CD E3C|D3F B,3G A6 g2|
a4 e3d cdef a4|b4 f3e def^a b3g|a4 e3d cdeg a3c|d3f B3g a6 g2|
a4 e3d cdef a4|b4 f3e def^a b3g|agfa gfeg fedf edce|dcde fgae cA3 A2:|
